static/logos/ditto-glyph-color.svg

<svg width="100" height="35" viewBox="0 0 100 35" fill="none" xmlns="http://www.w3.org/2000/svg">
<g clip-path="url(#clip0_1_3007)">
<path fill-rule="evenodd" clip-rule="evenodd" d="M29.9219 1.27037C26.8984 4.29383 30.0963 8.85391 34.2733 7.47531C37.1515 6.52551 37.8902 3.41399 35.7465 1.27037C34.0527 -0.423457 31.6157 -0.423457 29.9219 1.27037ZM15.9618 8.13868V14.1811L15.0358 12.8243C13.5902 10.7066 11.6856 9.86831 8.70539 10.0387C5.16465 10.2407 3.12102 11.6457 1.55682 14.9531C-1.23207 20.8502 -0.162115 28.7753 3.87204 32.1004C7.47946 35.0737 13.4313 34.5008 15.3346 30.9971C15.9235 29.9128 15.9288 29.9202 15.9453 31.8576L15.9618 33.8123H20.2877H24.6136L24.5058 18.0716L24.398 2.33086L20.1799 2.21358L15.9618 2.0963V8.13868ZM43.0383 7.37202L42.9165 10.1498L41.3556 10.2786L39.7951 10.4074L39.9153 13.365L40.0358 16.3226L41.579 16.4502L43.1222 16.5782V23.1918C43.1222 29.1045 43.2103 29.9481 43.9519 31.1481C45.344 33.4008 48.7745 34.5379 52.6988 34.0477C56.2193 33.6078 56.1284 33.8551 54.8535 28.2099C54.7008 27.5329 54.4272 27.384 53.6198 27.5379C51.6337 27.9177 51.3527 27.184 51.3527 21.6222V16.5284H53.4103H55.4679V13.4646V10.4008L53.5132 10.2753L51.5584 10.1498L51.4366 7.37202L51.3152 4.59424H47.2375H43.1597L43.0383 7.37202ZM60.4062 7.4749V10.3556H58.9658H57.5255V13.442V16.5284H58.9383H60.3506L60.4815 23.2897C60.6268 30.8177 60.8486 31.4909 63.7416 33.1951C65.97 34.5078 73.8272 34.2527 73.379 32.8823C73.2872 32.6016 73.0049 31.3177 72.7519 30.0292C72.2988 27.7222 72.2683 27.6844 70.7728 27.5601L69.2539 27.4337L69.1391 22.0041L69.0247 16.5745L70.9909 16.4486L72.9576 16.3226L73.0786 13.3391L73.1996 10.3556H71.1239H69.0482V7.4749V4.59424H64.7272H60.4062V7.4749ZM82.9239 10.5354C76.3724 12.8728 73.4547 20.5724 76.4667 27.5737C78.3992 32.0658 82.9778 34.5342 88.5922 34.1095C95.6482 33.5757 99.6296 29.2502 99.6605 22.084C99.693 14.5403 95.0342 9.91605 87.4482 9.96214C85.8161 9.97202 83.7798 10.23 82.9239 10.5354ZM28.719 22.084V33.8123H32.8342H36.9494V22.084V10.3556H32.8342H28.719V22.084ZM89.5502 17.0671C91.1683 18.7893 91.458 23.7905 90.0864 26.3218C88.9601 28.4008 86.0708 28.2835 84.9601 26.114C82.2243 20.7695 86.0132 13.3021 89.5502 17.0671ZM14.8963 17.7947C15.8025 18.8712 15.9618 19.4593 15.9618 21.7243C15.9618 24.7963 15.1795 26.665 13.6502 27.2465C10.8548 28.3091 8.97 26.1198 8.96753 21.807C8.9663 19.4514 9.11774 18.8807 10.0313 17.7947C10.8272 16.8486 11.4424 16.5284 12.4638 16.5284C13.4852 16.5284 14.1005 16.8486 14.8963 17.7947Z" fill="black"/>
</g>
<defs>
<clipPath id="clip0_1_3007">
<rect width="100" height="34.5679" fill="white"/>
</clipPath>
</defs>
</svg>

<svg xmlns="http://www.w3.org/2000/svg" width="182.857" height="64" fill="none" viewBox="0 0 100 35"><g clip-path="url(#a)"><path fill="#000" fill-rule="evenodd" d="M29.922 1.27c-3.024 3.024.174 7.584 4.351 6.205 2.878-.95 3.617-4.061 1.473-6.205-1.693-1.693-4.13-1.693-5.824 0ZM15.962 8.14v6.042l-.926-1.357c-1.446-2.117-3.35-2.956-6.33-2.785-3.541.202-5.585 1.607-7.15 4.914C-1.231 20.85-.161 28.775 3.873 32.1c3.607 2.974 9.56 2.4 11.463-1.103.588-1.084.594-1.077.61.86l.017 1.955h8.652l-.108-15.74-.108-15.741-4.218-.117-4.218-.118V8.14Zm27.076-.767-.121 2.778-1.561.129-1.56.128.12 2.958.12 2.958 1.543.127 1.543.128v6.614c0 5.913.088 6.756.83 7.956 1.392 2.253 4.823 3.39 8.747 2.9 3.52-.44 3.43-.193 2.154-5.838-.152-.677-.426-.826-1.233-.672-1.986.38-2.267-.354-2.267-5.916v-5.094h4.115V10.401l-1.955-.126-1.955-.125-.121-2.778-.122-2.778H43.16l-.122 2.778Zm17.368.103v2.88h-2.88v6.173h2.825l.13 6.762c.146 7.528.368 8.2 3.26 9.905 2.229 1.313 10.086 1.058 9.638-.313-.092-.28-.374-1.564-.627-2.853-.453-2.307-.484-2.345-1.98-2.469l-1.518-.126-.115-5.43-.114-5.43 1.966-.125 1.967-.126.12-2.984.122-2.983h-4.152V4.595h-8.642v2.88Zm22.518 3.06c-6.552 2.338-9.47 10.037-6.457 17.039 1.932 4.492 6.51 6.96 12.125 6.535 7.056-.533 11.038-4.859 11.069-12.025.032-7.544-4.627-12.168-12.213-12.122-1.632.01-3.668.268-4.524.573ZM28.719 22.084v11.728h8.23V10.356h-8.23v11.728Zm60.831-5.017c1.618 1.722 1.908 6.724.536 9.255-1.126 2.079-4.015 1.962-5.126-.208-2.736-5.345 1.053-12.812 4.59-9.047Zm-74.654.728c.906 1.076 1.066 1.664 1.066 3.93 0 3.071-.782 4.94-2.312 5.521-2.795 1.063-4.68-1.126-4.682-5.439-.002-2.356.15-2.926 1.063-4.012.796-.946 1.411-1.267 2.433-1.267 1.021 0 1.636.32 2.432 1.267Z" clip-rule="evenodd"/></g><defs><clipPath id="a"><path fill="#fff" d="M0 0h100v34.568H0z"/></clipPath></defs></svg>
